images/icons.svg

<svg aria-hidden="true" style="position: absolute; width: 0; height: 0; overflow: hidden;" version="1.1" xmlns="http://www.w3.org/2000/svg" xmlns:xlink="http://www.w3.org/1999/xlink"><defs><symbol id="icon-icontwitter" viewBox="0 0 32 32"><path  d="M32 0l-32 18 10.227 3.788 15.773-14.788-11.998 16.186 0.010 0.004-0.012-0.004v8.814l5.735-6.691 7.265 2.691 5-28z"></path></symbol><symbol id="icon-input1" viewBox="0 0 32 32"><path d="M16 16c4.42 0 8-3.58 8-8s-3.58-8-8-8c-4.42 0-8 3.58-8 8s3.58 8 8 8zM16 20c-5.34 0-16 2.68-16 8v2c0 1.1 0.9 2 2 2h28c1.1 0 2-0.9 2-2v-2c0-5.32-10.66-8-16-8z"></path></symbol><symbol id="icon-input2" viewBox="0 0 32 32"><path d="M27.419 20.852l-4.201-0.48c-1.009-0.116-2.002 0.232-2.713 0.943l-3.044 3.044c-4.681-2.382-8.519-6.203-10.901-10.901l3.060-3.060c0.711-0.711 1.059-1.704 0.943-2.713l-0.48-4.168c-0.198-1.671-1.604-2.928-3.292-2.928h-2.862c-1.869 0-3.424 1.555-3.308 3.424 0.877 14.126 12.174 25.407 26.284 26.284 1.869 0.116 3.424-1.439 3.424-3.308v-2.862c0.016-1.671-1.241-3.077-2.911-3.275z"></path></symbol><symbol id="icon-input3" viewBox="0 0 43 32"><path d="M37.333 0h-32c-2.2 0-3.98 1.8-3.98 4l-0.020 24c0 2.2 1.8 4 4 4h32c2.2 0 4-1.8 4-4v-24c0-2.2-1.8-4-4-4zM36.533 8.5l-14.14 8.84c-0.64 0.4-1.48 0.4-2.12 0l-14.14-8.84c-0.5-0.32-0.8-0.86-0.8-1.44 0-1.34 1.46-2.14 2.6-1.44l13.4 8.38 13.4-8.38c1.14-0.7 2.6 0.1 2.6 1.44 0 0.58-0.3 1.12-0.8 1.44z"></path></symbol><symbol id="icon-inputclose" viewBox="0 0 32 32"><path d="M32 3.223l-3.223-3.223-12.777 12.777-12.777-12.777-3.223 3.223 12.777 12.777-12.777 12.777 3.223 3.223 12.777-12.777 12.777 12.777 3.223-3.223-12.777-12.777 12.777-12.777z"></path></symbol></defs></svg>

<svg aria-hidden="true" style="position:absolute;width:0;height:0" xmlns="http://www.w3.org/2000/svg" overflow="hidden"><defs><symbol id="icon-icontwitter" viewBox="0 0 32 32"><path d="M32 0L0 18l10.227 3.788L26 7 14.002 23.186l.01.004-.012-.004V32l5.735-6.691L27 28l5-28z"/></symbol><symbol id="icon-input1" viewBox="0 0 32 32"><path d="M16 16c4.42 0 8-3.58 8-8s-3.58-8-8-8-8 3.58-8 8 3.58 8 8 8zm0 4c-5.34 0-16 2.68-16 8v2c0 1.1.9 2 2 2h28c1.1 0 2-.9 2-2v-2c0-5.32-10.66-8-16-8z"/></symbol><symbol id="icon-input2" viewBox="0 0 32 32"><path d="M27.419 20.852l-4.201-.48a3.293 3.293 0 00-2.713.943l-3.044 3.044A24.888 24.888 0 016.56 13.458l3.06-3.06a3.293 3.293 0 00.943-2.713l-.48-4.168A3.31 3.31 0 006.791.589H3.929C2.06.589.505 2.144.621 4.013c.877 14.126 12.174 25.407 26.284 26.284 1.869.116 3.424-1.439 3.424-3.308v-2.862c.016-1.671-1.241-3.077-2.911-3.275z"/></symbol><symbol id="icon-input3" viewBox="0 0 43 32"><path d="M37.333 0h-32c-2.2 0-3.98 1.8-3.98 4l-.02 24c0 2.2 1.8 4 4 4h32c2.2 0 4-1.8 4-4V4c0-2.2-1.8-4-4-4zm-.8 8.5l-14.14 8.84c-.64.4-1.48.4-2.12 0L6.133 8.5c-.5-.32-.8-.86-.8-1.44 0-1.34 1.46-2.14 2.6-1.44l13.4 8.38 13.4-8.38c1.14-.7 2.6.1 2.6 1.44 0 .58-.3 1.12-.8 1.44z"/></symbol><symbol id="icon-inputclose" viewBox="0 0 32 32"><path d="M32 3.223L28.777 0 16 12.777 3.223 0 0 3.223 12.777 16 0 28.777 3.223 32 16 19.223 28.777 32 32 28.777 19.223 16 32 3.223z"/></symbol></defs></svg>
